X:1
T:Title
%%score { 1 | 2 }
L:1/8
M:4/4
K:Eb
V:1 treble nm="Grand Piano"
V:2 bass 
V:1
 z4 z2[Q:1/4=94] [EG]>[FA] | [GB]>[GB] [GB]>[_G=A] [_Ac][=GB] [Ge]>[Bd] | %2
 [Bd]>[Ac] [Bd]>[Ac] [GB]2 [GB]>[GB] | B>A A>G AA [DF]>[=EG] | %4
 [FA]>[=EG] [FA]>[DB] [_EG]2 [EG]>[FA] | [GB]>[GB] [GB]>[_G=A] [_Ac][=GB] [Ge]>[Bd] | %6
 [Bd]>c c>c e2 [Bd]>[Ac] |[M:17/16] [Ac]>[GB][GB]>[EG][GB][Ge]3/2[B,E]>[CEF] | %8
[M:3/4] [B,EG]>[EB] [DF]>[DG] E2 |[M:1/4] [GB]>[Ac] |[M:4/4] [GB]4 [EG]2 [Ge]>[GB] | [Bd]4 c2 A>G | %12
 F>=E F>A [Bd]>[Ac] [GB]>[FA] | [EG]6 [GB]>[Ac] | [GB]4 [EG]2 [Ge]>[Bd] | f4 c2 d>e | %16
 e>B =A>B [_Ad]>[Ac] [DF]>[DG] |[M:3/4] E6 |] %18
V:2
 z4 z2 [E,B,]>[E,B,] | [E,E]>[E,E] [E,E]>[E,E] [E,E][E,E] [E,E]>[G,E] | %2
 [A,E]>[A,E] [A,E]>[A,E] [E,E]2 [E,E]>[E,E] | %3
 [B,EG]>[B,DF] [B,DF]>[B,D=E] [B,DF][B,DF][K:bass] [B,,B,]>[B,,B,] | %4
 [B,,B,]>[B,,B,] [B,,B,]>[B,,B,] [E,B,]2 [E,B,]>[E,B,] | %5
 [E,E]>[E,E] [E,E]>[E,E] [E,E][E,E] [E,E]>[K:treble][G,E] | %6
 [A,E]>[A,EA] [A,EA]>[A,EA] [A,CA]2[K:bass] [A,E]>[A,E] | %7
[M:17/16] [E,E]>[E,E][E,E]>[E,B,][E,B,][E,B,]3/2G,,>A,, | %8
[M:3/4] B,,>[B,,G,] [B,,A,]>[B,,B,] [E,G,]2 |[M:1/4] [E,E]>[E,E] | %10
[M:4/4] [E,E]4 [E,B,]2 [E,B,]>[E,E] | [A,E]4 [A,EA]2 [A,CF]>[=A,CE] | %12
 [B,D]>[B,_D] [B,=D]>[B,F][K:bass] [B,,B,]>[B,,B,] [C,B,]>[D,B,] | [E,B,]6 [E,E]>[E,E] | %14
 [E,E]4 [E,B,]2 [E,B,]>[K:treble][G,E] | [A,CA]4 [A,EA]2 [A,CA]>[=A,C_G] | %16
 [B,G]>[B,G] [B,_G]>[B,=G][K:bass] [B,,B,]>[B,,B,] [B,,A,]>[B,,B,] |[M:3/4] [E,G,]6 |] %18

